X: 1
T: Paddy Fahy's
M: 6/8
L: 1/8
R: jig
K: Gmaj
D|GA_B =B2d|cBG ABc|dBd cAc|BGd AFD|
GA_B =B2d|cBG ABc|dga fdc|BGF G2:|
|:d|~g3 bag|fga gfd|~g3 bag|fga g2ef|
gdB GBd|cBG ABc|dga fdc|BGF G2:|
